X: 15777
T: Good Morning You Would Like Some Tea
R: jig
M: 6/8
K: Gmajor
d2 c|:BGG B2 d|g3 f2 e|ded B2 A|G3 A2 B|c2 e edc|
[1B2 d dBG|ABc BAG|A2 d d2 c:|2 B2 d g2 a|bgb afa|g3 g2 a||
|:b2 b bag|a2 a agf|g2 g gfe|dBA GAB|c2 e edc|
[1B2 d dBG|ABc BAG|A2 d g2 a:|2 B2 d g2 a|bgb a2 f|g3||

